X: 95
T:Lull me Beyond  Thee
M:6/8
L:1/8
S:Playford
K:F
A2 A f>ef| g>fg a3 |A2 A f>ed |^c3 d3| A2 A f>ef| g>fg a3| A2 A f>ed| ^c3 d3:|
|:f2 f g>fg| a>ba g2 c| f2 f g>fg|a3 g3| a>ba g>fe| f>ed a3| A2 A f>ed| ^c3 d3:|

